src/com/lilithsthrone/res/weapons/meleeCrystal1.svg

<?xml version="1.0" encoding="UTF-8" standalone="no"?>
<!-- Created with Inkscape (http://www.inkscape.org/) -->

<svg
   xmlns:dc="http://purl.org/dc/elements/1.1/"
   xmlns:cc="http://creativecommons.org/ns#"
   xmlns:rdf="http://www.w3.org/1999/02/22-rdf-syntax-ns#"
   xmlns:svg="http://www.w3.org/2000/svg"
   xmlns="http://www.w3.org/2000/svg"
   xmlns:sodipodi="http://sodipodi.sourceforge.net/DTD/sodipodi-0.dtd"
   xmlns:inkscape="http://www.inkscape.org/namespaces/inkscape"
   viewBox="0 0 256 256"
   id="svg2"
   version="1.1"
   inkscape:version="0.91 r13725"
   sodipodi:docname="meleeCrystal1Icon.svg">
  <style
     id="style3">
    svg { cursor: default;}
  </style>
  <defs
     id="defs4">
    <inkscape:path-effect
       effect="powerstroke"
       id="path-effect4687"
       is_visible="true"
       offset_points="0.55068825,1.9422124"
       sort_points="true"
       interpolator_type="Linear"
       interpolator_beta="0.2"
       start_linecap_type="zerowidth"
       linejoin_type="round"
       miter_limit="4"
       end_linecap_type="zerowidth"
       cusp_linecap_type="round" />
    <inkscape:path-effect
       effect="powerstroke"
       id="path-effect4683"
       is_visible="true"
       offset_points="0.55068825,3.1286392"
       sort_points="true"
       interpolator_type="Linear"
       interpolator_beta="0.2"
       start_linecap_type="zerowidth"
       linejoin_type="round"
       miter_limit="4"
       end_linecap_type="zerowidth"
       cusp_linecap_type="round" />
    <inkscape:path-effect
       effect="powerstroke"
       id="path-effect4651"
       is_visible="true"
       offset_points="0.55068825,1.9422124"
       sort_points="true"
       interpolator_type="Linear"
       interpolator_beta="0.2"
       start_linecap_type="zerowidth"
       linejoin_type="round"
       miter_limit="4"
       end_linecap_type="zerowidth"
       cusp_linecap_type="round" />
    <inkscape:path-effect
       effect="powerstroke"
       id="path-effect4647"
       is_visible="true"
       offset_points="0.55068825,3.1286392"
       sort_points="true"
       interpolator_type="Linear"
       interpolator_beta="0.2"
       start_linecap_type="zerowidth"
       linejoin_type="round"
       miter_limit="4"
       end_linecap_type="zerowidth"
       cusp_linecap_type="round" />
    <inkscape:path-effect
       effect="powerstroke"
       id="path-effect4541"
       is_visible="true"
       offset_points="0.55068825,1.9422124"
       sort_points="true"
       interpolator_type="Linear"
       interpolator_beta="0.2"
       start_linecap_type="zerowidth"
       linejoin_type="round"
       miter_limit="4"
       end_linecap_type="zerowidth"
       cusp_linecap_type="round" />
    <inkscape:path-effect
       effect="powerstroke"
       id="path-effect4537"
       is_visible="true"
       offset_points="0.55068825,3.1286392"
       sort_points="true"
       interpolator_type="Linear"
       interpolator_beta="0.2"
       start_linecap_type="zerowidth"
       linejoin_type="round"
       miter_limit="4"
       end_linecap_type="zerowidth"
       cusp_linecap_type="round" />
    <inkscape:path-effect
       effect="powerstroke"
       id="path-effect4505"
       is_visible="true"
       offset_points="0.55068825,1.9422124"
       sort_points="true"
       interpolator_type="Linear"
       interpolator_beta="0.2"
       start_linecap_type="zerowidth"
       linejoin_type="round"
       miter_limit="4"
       end_linecap_type="zerowidth"
       cusp_linecap_type="round" />
    <inkscape:path-effect
       effect="powerstroke"
       id="path-effect4501"
       is_visible="true"
       offset_points="0.55068825,3.1286392"
       sort_points="true"
       interpolator_type="Linear"
       interpolator_beta="0.2"
       start_linecap_type="zerowidth"
       linejoin_type="round"
       miter_limit="4"
       end_linecap_type="zerowidth"
       cusp_linecap_type="round" />
    <inkscape:path-effect
       cusp_linecap_type="round"
       end_linecap_type="zerowidth"
       miter_limit="4"
       linejoin_type="round"
       start_linecap_type="zerowidth"
       interpolator_beta="0.2"
       interpolator_type="Linear"
       sort_points="true"
       offset_points="0.55068825,1.9422124"
       is_visible="true"
       id="path-effect4434"
       effect="powerstroke" />
    <inkscape:path-effect
       cusp_linecap_type="round"
       end_linecap_type="zerowidth"
       miter_limit="4"
       linejoin_type="round"
       start_linecap_type="zerowidth"
       interpolator_beta="0.2"
       interpolator_type="Linear"
       sort_points="true"
       offset_points="0.55068825,3.1286392"
       is_visible="true"
       id="path-effect4430"
       effect="powerstroke" />
    <inkscape:path-effect
       cusp_linecap_type="round"
       end_linecap_type="zerowidth"
       miter_limit="4"
       linejoin_type="round"
       start_linecap_type="zerowidth"
       interpolator_beta="0.2"
       interpolator_type="Linear"
       sort_points="true"
       offset_points="0.55068825,1.9422124"
       is_visible="true"
       id="path-effect4200"
       effect="powerstroke" />
    <inkscape:path-effect
       cusp_linecap_type="round"
       end_linecap_type="zerowidth"
       miter_limit="4"
       linejoin_type="round"
       start_linecap_type="zerowidth"
       interpolator_beta="0.2"
       interpolator_type="Linear"
       sort_points="true"
       offset_points="0.55068825,3.1286392"
       is_visible="true"
       id="path-effect4196"
       effect="powerstroke" />
    <inkscape:path-effect
       cusp_linecap_type="round"
       end_linecap_type="zerowidth"
       miter_limit="4"
       linejoin_type="round"
       start_linecap_type="zerowidth"
       interpolator_beta="0.2"
       interpolator_type="Linear"
       sort_points="true"
       offset_points="0.55068825,1.9422124"
       is_visible="true"
       id="path-effect4192"
       effect="powerstroke" />
    <inkscape:path-effect
       cusp_linecap_type="round"
       end_linecap_type="zerowidth"
       miter_limit="4"
       linejoin_type="round"
       start_linecap_type="zerowidth"
       interpolator_beta="0.2"
       interpolator_type="Linear"
       sort_points="true"
       offset_points="0.55068825,3.1286392"
       is_visible="true"
       id="path-effect4188"
       effect="powerstroke" />
    <inkscape:path-effect
       effect="powerstroke"
       id="path-effect4206"
       is_visible="true"
       offset_points="0.55068825,3.1286392"
       sort_points="true"
       interpolator_type="Linear"
       interpolator_beta="0.2"
       start_linecap_type="zerowidth"
       linejoin_type="round"
       miter_limit="4"
       end_linecap_type="zerowidth"
       cusp_linecap_type="round" />
    <inkscape:path-effect
       effect="powerstroke"
       id="path-effect4206-1"
       is_visible="true"
       offset_points="0.55068825,1.9422124"
       sort_points="true"
       interpolator_type="Linear"
       interpolator_beta="0.2"
       start_linecap_type="zerowidth"
       linejoin_type="round"
       miter_limit="4"
       end_linecap_type="zerowidth"
       cusp_linecap_type="round" />
    <inkscape:path-effect
       effect="powerstroke"
       id="path-effect4206-1-6"
       is_visible="true"
       offset_points="0.55068825,1.9422124"
       sort_points="true"
       interpolator_type="Linear"
       interpolator_beta="0.2"
       start_linecap_type="zerowidth"
       linejoin_type="round"
       miter_limit="4"
       end_linecap_type="zerowidth"
       cusp_linecap_type="round" />
    <inkscape:path-effect
       effect="powerstroke"
       id="path-effect4206-4"
       is_visible="true"
       offset_points="0.55068825,3.1286392"
       sort_points="true"
       interpolator_type="Linear"
       interpolator_beta="0.2"
       start_linecap_type="zerowidth"
       linejoin_type="round"
       miter_limit="4"
       end_linecap_type="zerowidth"
       cusp_linecap_type="round" />
    <inkscape:path-effect
       cusp_linecap_type="round"
       end_linecap_type="zerowidth"
       miter_limit="4"
       linejoin_type="round"
       start_linecap_type="zerowidth"
       interpolator_beta="0.2"
       interpolator_type="Linear"
       sort_points="true"
       offset_points="0.55068825,2.2580504"
       is_visible="true"
       id="path-effect4434-9"
       effect="powerstroke" />
    <inkscape:path-effect
       cusp_linecap_type="round"
       end_linecap_type="zerowidth"
       miter_limit="4"
       linejoin_type="round"
       start_linecap_type="zerowidth"
       interpolator_beta="0.2"
       interpolator_type="Linear"
       sort_points="true"
       offset_points="0.55068825,3.6374111"
       is_visible="true"
       id="path-effect4430-9"
       effect="powerstroke" />
    <inkscape:path-effect
       cusp_linecap_type="round"
       end_linecap_type="zerowidth"
       miter_limit="4"
       linejoin_type="round"
       start_linecap_type="zerowidth"
       interpolator_beta="0.2"
       interpolator_type="Linear"
       sort_points="true"
       offset_points="0.55068825,3.6374111"
       is_visible="true"
       id="path-effect4196-3"
       effect="powerstroke" />
    <inkscape:path-effect
       cusp_linecap_type="round"
       end_linecap_type="zerowidth"
       miter_limit="4"
       linejoin_type="round"
       start_linecap_type="zerowidth"
       interpolator_beta="0.2"
       interpolator_type="Linear"
       sort_points="true"
       offset_points="0.55068825,2.2580504"
       is_visible="true"
       id="path-effect4200-3"
       effect="powerstroke" />
    <inkscape:path-effect
       cusp_linecap_type="round"
       end_linecap_type="zerowidth"
       miter_limit="4"
       linejoin_type="round"
       start_linecap_type="zerowidth"
       interpolator_beta="0.2"
       interpolator_type="Linear"
       sort_points="true"
       offset_points="0.55068825,1.338671"
       is_visible="true"
       id="path-effect4200-5"
       effect="powerstroke" />
    <inkscape:path-effect
       cusp_linecap_type="round"
       end_linecap_type="zerowidth"
       miter_limit="4"
       linejoin_type="round"
       start_linecap_type="zerowidth"
       interpolator_beta="0.2"
       interpolator_type="Linear"
       sort_points="true"
       offset_points="0.55068825,1.4540937"
       is_visible="true"
       id="path-effect4434-5"
       effect="powerstroke" />
    <inkscape:path-effect
       cusp_linecap_type="round"
       end_linecap_type="zerowidth"
       miter_limit="4"
       linejoin_type="round"
       start_linecap_type="zerowidth"
       interpolator_beta="0.2"
       interpolator_type="Linear"
       sort_points="true"
       offset_points="0.55068825,1.338671"
       is_visible="true"
       id="path-effect4200-5-4"
       effect="powerstroke" />
    <inkscape:path-effect
       cusp_linecap_type="round"
       end_linecap_type="zerowidth"
       miter_limit="4"
       linejoin_type="round"
       start_linecap_type="zerowidth"
       interpolator_beta="0.2"
       interpolator_type="Linear"
       sort_points="true"
       offset_points="0.55068825,1.4540937"
       is_visible="true"
       id="path-effect4434-5-1"
       effect="powerstroke" />
  </defs>
  <sodipodi:namedview
     id="base"
     pagecolor="#ffffff"
     bordercolor="#666666"
     borderopacity="1.0"
     inkscape:pageopacity="0.0"
     inkscape:pageshadow="2"
     inkscape:zoom="1.4"
     inkscape:cx="-61.683936"
     inkscape:cy="197.54272"
     inkscape:document-units="px"
     inkscape:current-layer="layer2"
     showgrid="false"
     units="px"
     inkscape:window-width="2560"
     inkscape:window-height="1388"
     inkscape:window-x="-8"
     inkscape:window-y="-8"
     inkscape:window-maximized="1" />
  <metadata
     id="metadata7">
    <rdf:RDF>
      <cc:Work
         rdf:about="">
        <dc:format>image/svg+xml</dc:format>
        <dc:type
           rdf:resource="http://purl.org/dc/dcmitype/StillImage" />
        <dc:title />
      </cc:Work>
    </rdf:RDF>
  </metadata>
  <g
     inkscape:groupmode="layer"
     id="layer2"
     inkscape:label="Layer 2"
     style="display:inline">
    <path
       style="fill:#ffaaaa;fill-rule:evenodd;stroke:#000000;stroke-width:1.61661077px;stroke-linecap:butt;stroke-linejoin:miter;stroke-opacity:1"
       d="m 217.82627,76.775749 7.20526,-45.11648 -18.77894,-22.8113665 -43.90471,0.511672 -36.90467,19.8887005 -84.673092,181.647565 3.912402,19.63971 24.880614,15.47031 21.05185,1.98201 z"
       id="path4140"
       inkscape:connector-curvature="0"
       sodipodi:nodetypes="cccccccccc" />
    <path
       style="display:inline;fill:#f9f9f9;fill-opacity:0.25882353;fill-rule:evenodd;stroke:none;stroke-width:1px;stroke-linecap:butt;stroke-linejoin:miter;stroke-opacity:1"
       d="m 83.478979,143.64297 -27.55837,36.21576 70.042731,-150.042583 25.89468,7.780647 -8.78641,26.785851 z"
       id="path4148-1"
       inkscape:connector-curvature="0"
       sodipodi:nodetypes="cccccc" />
    <path
       style="display:inline;fill:#f9f9f9;fill-opacity:0.25882353;fill-rule:evenodd;stroke:none;stroke-width:1px;stroke-linecap:butt;stroke-linejoin:miter;stroke-opacity:1"
       d="M 162.61488,10.008626 204.38316,9.6268952 193.91287,20.905547 152.68562,36.942342 127.39833,29.17776 Z"
       id="path4148-4"
       inkscape:connector-curvature="0"
       sodipodi:nodetypes="cccccc" />
    <path
       style="fill:none;fill-rule:evenodd;stroke:#000000;stroke-width:1.0611043px;stroke-linecap:butt;stroke-linejoin:miter;stroke-opacity:1"
       d="M 205.91045,8.6535194 194.21153,21.196418 224.2245,31.603462"
       id="path4141"
       inkscape:connector-curvature="0"
       sodipodi:nodetypes="ccc" />
    <path
       style="fill:none;fill-rule:evenodd;stroke:#000000;stroke-width:1.0611043px;stroke-linecap:butt;stroke-linejoin:miter;stroke-opacity:1"
       d="M 194.21153,21.196419 152.68547,37.311774 125.63162,29.256288"
       id="path4143"
       inkscape:connector-curvature="0"
       sodipodi:nodetypes="ccc" />
    <path
       style="fill:none;fill-rule:evenodd;stroke:#000000;stroke-width:1.0611043px;stroke-linecap:butt;stroke-linejoin:miter;stroke-opacity:1"
       d="m 152.52655,37.143024 -8.83317,26.99588 22.61421,21.077103 51.54356,-8.549025"
       id="path4147"
       inkscape:connector-curvature="0"
       sodipodi:nodetypes="cccc" />
    <path
       style="fill:none;fill-rule:evenodd;stroke:#000000;stroke-width:1.0611043px;stroke-linecap:butt;stroke-linejoin:miter;stroke-opacity:1"
       d="M 166.21754,85.205122 144.38362,175.77899"
       id="path4149"
       inkscape:connector-curvature="0"
       sodipodi:nodetypes="cc" />
    <path
       style="fill:none;fill-rule:evenodd;stroke:#000000;stroke-width:1.0611043px;stroke-linecap:butt;stroke-linejoin:miter;stroke-opacity:1"
       d="M 143.76929,64.247775 53.565284,183.69287"
       id="path4151"
       inkscape:connector-curvature="0"
       sodipodi:nodetypes="cc" />
    <path
       style="fill:none;fill-rule:evenodd;stroke:#000000;stroke-width:1.0611043px;stroke-linecap:butt;stroke-linejoin:miter;stroke-opacity:1"
       d="M 84.287811,143.04311 44.639885,230.41684"
       id="path4153"
       inkscape:connector-curvature="0"
       sodipodi:nodetypes="cc" />
    <path
       style="fill:none;fill-rule:evenodd;stroke:#000000;stroke-width:1.0611043px;stroke-linecap:butt;stroke-linejoin:miter;stroke-opacity:1"
       d="M 97.521236,216.87042 154.69022,133.4589"
       id="path4155"
       inkscape:connector-curvature="0"
       sodipodi:nodetypes="cc" />
    <path
       style="fill:none;fill-rule:evenodd;stroke:#000000;stroke-width:1.0611043px;stroke-linecap:butt;stroke-linejoin:miter;stroke-opacity:1"
       d="m 90.519704,247.72751 c 0.07983,-0.55431 7.222759,-31.27205 7.222759,-31.27205 l -46.22248,-1.0757"
       id="path4157"
       inkscape:connector-curvature="0" />
    <path
       style="display:inline;fill:#000000;fill-opacity:0.25882353;fill-rule:evenodd;stroke:none;stroke-width:1px;stroke-linecap:butt;stroke-linejoin:miter;stroke-opacity:1"
       d="m 69.651697,246.0866 -24.782706,-15.63703 6.978414,-15.11342 46.033717,1.12635 -7.572239,31.32637 z"
       id="path4148-1-2"
       inkscape:connector-curvature="0"
       sodipodi:nodetypes="cccccc" />
    <path
       style="display:inline;fill:#000000;fill-opacity:0.25882353;fill-rule:evenodd;stroke:none;stroke-width:1px;stroke-linecap:butt;stroke-linejoin:miter;stroke-opacity:1"
       d="m 90.676733,247.63464 7.212494,-30.73696 55.869613,-81.82573 -9.52858,40.46107 c -19.89897,27.01555 -31.49572,42.27574 -53.553527,72.10162 z"
       id="path4148-1-2-4"
       inkscape:connector-curvature="0"
       sodipodi:nodetypes="ccccc" />
    <path
       style="display:inline;fill:#000000;fill-opacity:0.25882353;fill-rule:evenodd;stroke:none;stroke-width:1px;stroke-linecap:butt;stroke-linejoin:miter;stroke-opacity:1"
       d="m 144.7413,175.39069 21.72773,-90.057035 51.08781,-8.275661 -19.6786,26.579476 c -20.2645,26.37323 -31.07915,41.92735 -53.13694,71.75322 z"
       id="path4148-1-2-4-4"
       inkscape:connector-curvature="0"
       sodipodi:nodetypes="ccccc" />
    <path
       style="fill:#ff8080;fill-rule:evenodd;stroke:none;stroke-width:1px;stroke-linecap:butt;stroke-linejoin:miter;stroke-opacity:1"
       d="M 29.642856,214.92857 C 31.462037,168.50677 42.536905,123.36414 64.81426,86.248531 81.284117,55.129868 105.65814,28.443532 139.64285,10.285716 104.6911,26.594976 78.238521,52.036398 59.365315,83.153623 38.326839,122.31358 29.373956,168.63012 29.642856,214.92857 Z"
       id="path4204"
       inkscape:path-effect="#path-effect4206"
       inkscape:original-d="M 29.642856,214.92857 C 31.04723,130.74165 62.934078,48.640105 139.64285,10.285716"
       inkscape:connector-curvature="0"
       sodipodi:nodetypes="cc" />
    <path
       style="display:inline;fill:#ff8080;fill-rule:evenodd;stroke:none;stroke-width:1px;stroke-linecap:butt;stroke-linejoin:miter;stroke-opacity:1"
       d="m 233.5213,45.942649 c -2.24928,46.402953 -13.742,91.441011 -36.36234,128.348591 -16.75752,30.9647 -41.37779,57.42402 -75.5293,75.26613 35.10138,-15.98467 61.78858,-41.17987 80.94933,-72.12086 21.40046,-38.96332 30.78216,-85.194903 30.94231,-131.493861 z"
       id="path4204-4"
       inkscape:path-effect="#path-effect4206-4"
       inkscape:original-d="M 233.5213,45.942649 C 231.33685,130.11294 198.69055,211.91547 121.62966,249.55737"
       inkscape:connector-curvature="0"
       sodipodi:nodetypes="cc" />
    <path
       style="display:inline;fill:#ffffff;fill-opacity:1;fill-rule:evenodd;stroke:none;stroke-width:1px;stroke-linecap:butt;stroke-linejoin:miter;stroke-opacity:1"
       d="m 163.4516,10.937331 13.81686,-0.198129 -39.55668,20.196019 -8.13372,-2.045491 z"
       id="path4148-4-2"
       inkscape:connector-curvature="0"
       sodipodi:nodetypes="ccccc" />
    <path
       style="display:inline;fill:#ffffff;fill-opacity:1;fill-rule:evenodd;stroke:none;stroke-width:1px;stroke-linecap:butt;stroke-linejoin:miter;stroke-opacity:1"
       d="m 126.75627,31.322531 8.43479,2.50451 -67.430423,128.446909 -6.978262,9.408 z"
       id="path4148-4-2-8"
       inkscape:connector-curvature="0"
       sodipodi:nodetypes="ccccc" />
  </g>
</svg>

<svg xmlns="http://www.w3.org/2000/svg" cursor="default" viewBox="0 0 256 256">
    <path fill="#faa" fill-rule="evenodd" stroke="#000" stroke-width="1.617" d="M217.826 76.776l7.206-45.117-18.78-22.811-43.904.512-36.905 19.888L40.77 210.896l3.913 19.64 24.88 15.47 21.052 1.982z"/>
    <path fill="#f9f9f9" fill-opacity=".259" fill-rule="evenodd" d="M83.479 143.643l-27.558 36.216 70.042-150.043 25.895 7.78-8.786 26.787zM162.615 10.009l41.768-.382-10.47 11.279-41.227 16.036-25.288-7.764z"/>
    <path fill="none" stroke="#000" stroke-width="1.061" d="M205.91 8.654l-11.698 12.542 30.013 10.407M194.212 21.196l-41.527 16.116-27.053-8.056"/>
    <path fill="none" stroke="#000" stroke-width="1.061" d="M152.527 37.143l-8.834 26.996 22.615 21.077 51.543-8.549M166.218 85.205l-21.834 90.574M143.77 64.248L53.564 183.693M84.288 143.043L44.64 230.417M97.521 216.87l57.17-83.411M90.52 247.728c.08-.555 7.222-31.273 7.222-31.273L51.52 215.38"/>
    <path fill-opacity=".259" fill-rule="evenodd" d="M69.652 246.087L44.869 230.45l6.978-15.114 46.034 1.126-7.572 31.327zM90.677 247.635l7.212-30.737 55.87-81.826-9.529 40.461c-19.899 27.016-31.495 42.276-53.553 72.102zM144.741 175.39l21.728-90.056 51.088-8.276-19.679 26.58c-20.264 26.373-31.079 41.927-53.137 71.753z"/>
    <path fill="#ff8080" fill-rule="evenodd" d="M29.643 214.929c1.819-46.422 12.894-91.565 35.171-128.68 16.47-31.12 40.844-57.805 74.829-75.963-34.952 16.309-61.404 41.75-80.278 72.868-21.038 39.16-29.991 85.476-29.722 131.775zM233.521 45.943c-2.249 46.403-13.742 91.44-36.362 128.348-16.758 30.965-41.378 57.424-75.53 75.266 35.102-15.984 61.79-41.18 80.95-72.12 21.4-38.964 30.782-85.195 30.942-131.494z"/>
    <path fill="#fff" fill-rule="evenodd" d="M163.452 10.937l13.816-.198-39.556 20.196-8.134-2.045zM126.756 31.323l8.435 2.504-67.43 128.447-6.979 9.408z"/>
</svg>
